X:1
T:Title
%%score 1 { ( 2 5 6 ) | ( 3 4 ) }
L:1/8
M:6/8
K:F
V:1 treble nm="Akkordion"
V:2 treble nm="Grand Piano"
V:5 treble 
V:6 treble 
V:3 bass 
V:4 bass 
V:1
 z3 z2[Q:1/4=72] C/C/ | D<DD E2 E/E/ | F2 A A2 A/A/ | B2 B G2 G |[M:5/8] A- A3 z |[M:1/8] A/A/ | %6
[M:3/4] _A2 A/A/ G2 G/G/ | F2 F ^C2 C/C/ | C2 F G2 F/G/ |[M:5/8] A- A3 z |[M:1/8] A/A/ | %11
[M:3/4] A2 E E2 F/G/ | F2 A A2 A/A/ | _A2 EA =A=B |[M:5/8] c- c3 z |[M:1/8] c |[M:3/4] dc A F2 F | %17
 GG F ^C2 C/C/ | C2 F G2 F/G/ |[M:5/8] F- F3 z |] %20
V:2
 z3 z2 [FA] | [=B,DF_A]2 [B,DFA] [_B,CEG]2 [B,CEG] | [A,CF]2 [CFc] [CFc]2 [CAc] | %3
 [DBd]2 [DBd] [B,GB]2 [B,GB] |[M:5/8] [A,CFc]- [A,CFc]3 z |[M:1/8] [A,CFc] | %6
[M:3/4] [DF_A=B]2 [DFAB] [DFG_B]2 [DFGB] | [CFA]2 [CFA] [^CF]2 [CF] | z2 z2 z c |[M:5/8] c- c3 z | %10
[M:1/8] A |[M:3/4] z2 z2 z ^c | [Fd]2 [FAd] [FAd]2 [FAd] | z2 z .d3 |[M:5/8] e- e3 z | %15
[M:1/8] [EBc] |[M:3/4] [FAd][Ac] [CFA] [A,C_EF]2 [F,A,CEF] | [DG]2 [DF] [^CF]2 [CF] | %18
 [CF]2 [Fc] [Ec]2 .[Dc] |[M:5/8] z/4 z/8 c/8-c/- c2 F2 |] %20
V:3
 z3 z2 C | F,,2 F, F,,2 F, | F,,2 z/8 z/16 A,/16-A,3/4 z/8 z/16 A,/16-A,3/4-A,F, | %3
 F,,2 F, F,,2 F, |[M:5/8] F,,- F,,3 z |[M:1/8] F,, |[M:3/4] F,,2 F, F,,2 F, | %7
 F,,2 [F,,F,] [B,,G,B,]2 [B,,G,B,] | [C,A,]2 [C,A,C] [C,B,C]2 [C,B,] | %9
[M:5/8] [F,A,CF]- [F,A,CF]3 z |[M:1/8] [F,CF] |[M:3/4] E,2 [G,A,^CE] [G,A,CE]2 .[G,A,CE] | %12
 D,2 [F,A,D] [F,A,D]2 [D,D] | [E,,E,]2 [E,_A,D] [E,B,D]2 [E,A,D] |[M:5/8] A,,2 E, [C,,C,][C,B,C] | %15
[M:1/8] [C,C] |[M:3/4] z F F,, F,2 F,, | [B,,F,B,]2 [B,,F,B,] [B,,G,B,]2 [B,,G,B,] | %18
 [C,A,]2 [C,A,C] [C,B,C]2 z/ E/ |[M:5/8] z/8 z/16[K:treble] F/16-F3/4- F2[K:bass] [F,C]2 |] %20
V:4
 x6 | x6 | z2 F,, .F,,3 | x6 |[M:5/8] x5 |[M:1/8] x |[M:3/4] x6 | x6 | x6 |[M:5/8] x5 |[M:1/8] x | %11
[M:3/4] x6 | x6 | x6 |[M:5/8] x5 |[M:1/8] x |[M:3/4] [F,,A,]2 z2 z2 | x6 | z2 z2 z [C,B,] | %19
[M:5/8] F,,2[K:treble] z[K:bass] z2 |] %20
V:5
 x6 | x6 | x6 | x6 |[M:5/8] x5 |[M:1/8] x |[M:3/4] x6 | x6 | [CF]2 [Fc] [Ec]2 D/E/ |[M:5/8] x5 | %10
[M:1/8] x |[M:3/4] [A^c]2 c c2 z/ G/ | x6 | [_Ad]2 [Ed]A =A[E=Bd] | %14
[M:5/8] [Ec]2 [A,CEA] [EB][EBd] |[M:1/8] x |[M:3/4] x6 | x6 | x6 | %19
[M:5/8] [C,A,]2 z z/8 z/16 A/16-A3/4-A |] %20
V:6
 x6 | x6 | x6 | x6 |[M:5/8] x5 |[M:1/8] x |[M:3/4] x6 | x6 | x6 |[M:5/8] x5 |[M:1/8] x | %11
[M:3/4] x6 | x6 | x6 |[M:5/8] x5 |[M:1/8] x |[M:3/4] x6 | x6 | x6 | %19
[M:5/8] C2- [F,,,C] z/4 z/8 f/8-f3/2 |] %20

